X: 7
T: The Morning Star
R: reel
M: 4/4
L: 1/8
K: Dmaj
|:B3c BGEF|G2 (3Bcd efge|dBAd BGEF|GBAF G3A|BA A2 BGEF|G2 Bd efge|dBAd BGEF|GBAF G3A|||:(3Bcd ef g2 ga|fd d2 bdad|Bdef gfga|afdf e3d|(3Bcd ef g2 ga|fd d2 bdad|Bd d2 dBde|fggf gfed||


Tune 828	Setting 13983

